!!!COM:	Martini, Johannes
!!!CDT:	~1440///-~1497//
!!!OTL:	Ave maris stella
!!!AGN:	Motet
!!!SCT:	Mar2006
!!!SCA:	Mar2006
!!!voices:	4
**kern	**kern	**kern	**kern
*staff4	*staff3	*staff2	*staff1
*Ivox	*Ivox	*Ivox	*Ivox
*I"Bassus	*I"Tenor	*I"Contra	*I"Superius
*I'B	*I'T	*I'C	*I'S
*clefF4	*clefGv2	*clefGv2	*clefG2
*k[]	*k[]	*k[]	*k[]
*M3/1	*M3/1	*M3/1	*M3/1
*met(O)	*met(O)	*met(O)	*met(O)
=1-	=1-	=1-	=1-
1.D	0.r	0D	0.r
2E\	.	.	.
1F	.	1A	.
=2	=2	=2	=2
2.G\	0.r	1B	0.r
4F\	.	.	.
2E\	.	2G/	.
2D\	.	2.A/	.
2.F\	.	.	.
.	.	4B\	.
.	.	2c\	.
4E\	.	.	.
=3	=3	=3	=3
2D\	0.r	2d\	0.r
2C/	.	2.e\	.
1F	.	.	.
.	.	4d\	.
.	.	1d	.
1E	.	.	.
.	.	2c#i\	.
=4	=4	=4	=4
1D	[0.D	0d	0d
1.F	.	.	.
.	.	[1f	1a
2E\	.	.	.
=5	=5	=5	=5
2.D\	1D]	1f]	1b
4C/	.	.	.
0AA	0A	0e	0cc
=6	=6	=6	=6
1r	1B	1d	1dd
1E	1G	1e	1b
1F	1A	1c	1a
=7	=7	=7	=7
2G\	2B\	2B\	2g/
2D\	1d	1A	2f/
1E	.	.	1g
.	2c\	2G/	.
2D\	1d	2A/	2f/
[2G\	.	[2B\	2g/
=8	=8	=8	=8
2G\]	2d\	2B\]	2b\
2A\	2c\	2c\	1a
2F\	1d	1A	.
2D\	.	.	1dd
1A	1e	2r	.
.	.	2e\	2cc#i\
=9	=9	=9	=9
0D	0.d	1.f	0dd
.	.	2e\	.
1D	.	2d\	1r
.	.	4c\	.
.	.	4B\	.
=10	=10	=10	=10
1F	0.r	1A	1cc
2G\	.	2B\	2b\
2F\	.	2c\	1a
1D	.	1d	.
.	.	.	4g/
.	.	.	4f/
=11	=11	=11	=11
2r	0.r	2c\	2.e/
2C/	.	2.e\	.
.	.	.	4f/
2BB/	.	.	2g/
.	.	4d\	.
2AA/	.	2c\	1a
1E	.	1B	.
.	.	.	2g#i/
=12	=12	=12	=12
1AA	1c	1A	1a
2BB/	2B\	1r	1r
2C/	1A	.	.
1D	.	1r	1r
.	4G/	.	.
.	4F/	.	.
=13	=13	=13	=13
2C/	2.E/	0e	0.r
2.E\	.	.	.
.	4F/	.	.
.	2G/	.	.
4D\	.	.	.
2C/	1A	.	.
1BB	.	1d	.
.	2G#i/	.	.
=14	=14	=14	=14
2AA/	1A	2c\	1a
1D	.	4d\	.
.	.	4c\	.
.	1r	4B\	1a
.	.	4A/	.
2C/	.	1A	.
1BB	1r	.	1d
.	.	2G/	.
=15	=15	=15	=15
1AA	1A	1c	1e
1D	1A	1.d	0f
1F	1D	.	.
.	.	2c\	.
=16	=16	=16	=16
1E	1E	1.c	1g
0D	0F	.	1r
.	.	2B\	.
.	.	2B\	1f
.	.	2A/	.
=17	=17	=17	=17
1C	1G	1c	1e
2D\	1r	1A	2d/
2.F\	.	.	2.a/
.	1F	1d	.
4C/	.	.	4g/
2BB/	.	.	4f/
.	.	.	4e/
=18	=18	=18	=18
2C/	2E/	2e\	2d/
1D	2D/	2f\	2.f/
.	1F	2d\	.
.	.	.	4e/
2D\	.	4c\	1d
.	.	4B\	.
1AA	1E	4c\	.
.	.	4B\	.
.	.	4A/	2c#i/
.	.	4G/	.
=19	=19	=19	=19
2r	0.D	1F	0d
1A	.	.	.
.	.	1r	.
1F	.	.	.
.	.	1A	1r
2D\	.	.	.
=20	=20	=20	=20
1D	0.r	1d	1f
1A	.	1c	1e
2G\	.	2B\	1g
2c\	.	2e\	.
=21	=21	=21	=21
2A\	0.r	2c\	2a/
1G	.	2d\	2.b\
.	.	2c\	.
.	.	.	4a/
2F\	.	2A/	2a/
1E	.	1B	1g#i
=22	=22	=22	=22
2r	1F	1A	1a
2.AA/	.	.	.
.	1E	1r	1r
4BB/	.	.	.
2.C/	.	.	.
.	1G	1r	1r
4D\	.	.	.
2E\	.	.	.
=23	=23	=23	=23
2C/	2A/	0.r	0.r
2.D\	2.B\	.	.
4AA/	4A/	.	.
2C/	1A	.	.
1BB	.	.	.
.	2G#i/	.	.
=24	=24	=24	=24
1.AA	1A	2.c\	0a
.	.	4d\	.
.	1r	2e\	.
1D	.	2d\	.
.	1r	2f\	1d
4C/	.	4e\	.
4BB/	.	4d\	.
=25	=25	=25	=25
2AA/	0A	2c\	1e
2C/	.	2A/	.
2D\	.	2B\	2f/
2AA/	.	1A	2e/
1BB	1D	.	1d
.	.	2G#i/	.
=26	=26	=26	=26
1AA	1E	2A/	2c/
.	.	4c\	2e/
.	.	4B\	.
1r	2F/	4A/	4d/
.	.	4G/	4c/
.	2E/	1G	1c
1r	1D	.	.
.	.	2F/	2B/
=27	=27	=27	=27
1E	0C	1G	1c
0G	.	1E	1r
.	1r	1C	1e
=28	=28	=28	=28
2.E\	1r	2r	0g
.	.	2.c\	.
4C/	.	.	.
1.C	1E	.	.
.	.	4d\	.
.	.	2.e\	.
.	[1G	.	1r
.	.	4d\	.
2D\	.	[2d\	.
=29	=29	=29	=29
1E	1G]	2d\]	1e
.	.	2c#i\	.
1D	1r	1d	1f
1C	1E	2G/	1e
.	.	[2A/	.
=30	=30	=30	=30
1D	1F	2A/]	2d/
.	.	2A/	1a
1C	1E	1c	.
.	.	.	2g/
2D\	2D/	2A/	2f/
2AA/	2A/	2c\	2e/
=31	=31	=31	=31
2GG/	2B\	2d\	2.g/
1C	1G	1c	.
.	.	.	4f/
.	.	.	4e/
.	.	.	4d/
2D\	2F/	2B\	1d
1AA	1E	1A	.
.	.	.	2c#i/
=32	=32	=32	=32
0.Dl	0.Dl	0.Al	0.dl
==	==	==	==
*-	*-	*-	*-
!!!RDF**kern: l=long note in original notation
!!!RDF**kern: i=editorial accidental
!!!ENC:	Chris Gage 08-15-2014
!!!END:	2014/10/05/
!!!EED:	Jesse Rodin
!!!EEV:	2014/10/13/
!!!ONB:	Translated from MusicXML and edited on 2014/10/13/ by Craig Sapp
!!muse2ps: C^@{COM}^i2I150v85,85,85,150Q16
